!!!OTL: WO FINDET DIE SEELE DIE HEIMAT
!!!ARE: Europa, Mitteleuropa, Deutschland
!!!SCT: B0769
!!!YEM: Copyright 1995, estate of Helmut Schaffrath.
**kern
*ICvox
*Ivox
*M4/4
*k[b-e-a-]
*E-:
{4b-
=1
2b-
4g
4cc
=2
2b-
4g
4b-
=3
2a-
4f
4a-
=4
2g
4r}
{4g
=5
2g
4a-
4cc
=6
2b-
4g
4b-
=7
2a-
4f
4a-
=8
2g
4r}
{4b-
=9
2ee-
4dd
4cc
=10
2b-
4g
4b-
=11
4b-
4cc
4a-
4b-
=12
2g
4r}
{4b-
=13
2ee-
4dd
4cc
=14
2b-
4g
4b-
=15
4b-
4cc
4a-
4b-
=16
2g
2r}
=17
{2b-
2g
=18
2a-
2f
=19
2e-
4a-
4cc
=20
2b-
4r}
{4b-
=21
2ee-
4dd
4cc
=22
2b-
4g
4b-
=23
4b-
4a-
4g
4f
=24
2e-
4r}
==
!!!AGN: religioes
!!!ONB: ESAC (Essen Associative Code) Database: BOEHME
!!!AMT: simple quadruple
!!!AIN: vox
!!!EED: Helmut Schaffrath
!!!EEV: 1.0
*-
